X:390
T: Hansjockel (4-90), S. 118
N: P0660
O: Lothringen
S: PINCK, Louis: Verklingende Weisen Bd 4, Kassel 1939]
R: Weinlied, Trinklied]
M: 2/4
L: 1/16
K: G
B4 | GGD2D2D2 | G4B2A2 | G4
B4 | GGD2D2D2 | G4B2A2 | G2
G2c2d2 | e2A2A2B2 | c2
c2c2c2 | d2G2G2B2 | A4

